X: 9787
T: Denis Doody's
R: polka
M: 2/4
K: Eminor
|:GE E/F/E/D/|B,E E>G|F/G/A/F/ D>E|FG A/c/B/A/|
GE F/E/D|B,E E>F|GA B/c/B/A/|GF dF:|
|:Be e/f/e/d/|Be e>d|B/^c/d ef|fg ef|
fg fg/f/|eB BA|Bz E>F|GA B>A:|

